N0000 (File Posted with ACE KISS Offline v1.1.19.0)
N0001 (File Posted on 8/30/2013 12:12:57)
N0002 (Part Number: AM-010 Selective)
N0003 (Target Machine: KISS101B)
N0004 (Solder Alloy: Lead Free)
N0005 (Nozzle: 12mm)
N0006 (Zero Point: Fiducial)
N0007 G20 (Inch Units)
N0008 G52 X0.000 Y0.000 (OFFSET)
O1000 (BEGIN FLUX PROGRAM)
N0010 ()
N0011 G64 (INIT)
N0012 M21 (Set Active Tool - Atomized Fluxer #1)
N0013 M8011 (Flux Head UP)
N0014 G01 F999.000 (Speed Set to Rapid)
N0015 Z-1.500
N0016 X-0.827 Y0.535
N0017 Z-1.000
N0018 M8021 (Atomized Fluxer ON #1)
N0019 G04 P0.200 (DWELL)
N0020 G01 F75.000
N0021 X-0.624 Y0.668
N0022 X-0.835 Y0.795
N0023 M8020 (Atomized Fluxer OFF #1)
N0024 ()
N0025 G01 F999.000 (Speed Set to Rapid)
N0026 Z-1.500
N0027 X-0.600 Y1.615
N0028 Z-1.000
N0029 M8021 (Atomized Fluxer ON #1)
N0030 G04 P0.200 (DWELL)
N0031 G01 F75.000
N0032 X-0.592 Y2.822
N0033 M8020 (Atomized Fluxer OFF #1)
N0034 ()
N0035 G01 F999.000 (Speed Set to Rapid)
N0036 Z-1.500
N0037 X-1.194 Y2.654
N0038 Z-1.000
N0039 M8021 (Atomized Fluxer ON #1)
N0040 G04 P0.200 (DWELL)
N0041 G01 F75.000
N0042 X-1.189 Y2.917
N0043 M8020 (Atomized Fluxer OFF #1)
N0044 ()
N0045 G01 F999.000 (Speed Set to Rapid)
N0046 Z-1.500
N0047 X-1.490 Y2.871
N0048 Z-1.000
N0049 M8021 (Atomized Fluxer ON #1)
N0050 G04 P0.200 (DWELL)
N0051 G01 F75.000
N0052 X-1.704
N0053 M8020 (Atomized Fluxer OFF #1)
N0054 ()
N0055 G01 F999.000 (Speed Set to Rapid)
N0056 Z-1.500
N0057 X-2.504 Y2.817
N0058 Z-1.000
N0059 M8021 (Atomized Fluxer ON #1)
N0060 G04 P0.200 (DWELL)
N0061 G01 F75.000
N0062 X-2.515 Y1.254
N0063 M8020 (Atomized Fluxer OFF #1)
N0064 ()
N0065 G01 F999.000 (Speed Set to Rapid)
N0066 Z-1.500
N0067 X-2.238 Y0.468
N0068 Z-1.000
N0069 M8021 (Atomized Fluxer ON #1)
N0070 G04 P0.200 (DWELL)
N0071 G01 F75.000
N0072 X-2.051 Y0.614
N0073 X-1.951
N0074 X-1.756 Y0.460
N0075 M8020 (Atomized Fluxer OFF #1)
N0076 ()
N0077 G01 F999.000 (Speed Set to Rapid)
N0078 Z-1.500
N0079 X-3.175 Y0.532
N0080 Z-1.000
N0081 M8021 (Atomized Fluxer ON #1)
N0082 G04 P0.200 (DWELL)
N0083 G01 F75.000
N0084 X-2.984 Y0.662
N0085 X-3.203 Y0.776
N0086 M8020 (Atomized Fluxer OFF #1)
N0087 ()
N0088 G01 F999.000 (Speed Set to Rapid)
N0089 Z-1.500
N0090 X-2.955 Y1.614
N0091 Z-1.000
N0092 M8021 (Atomized Fluxer ON #1)
N0093 G04 P0.200 (DWELL)
N0094 G01 F75.000
N0095 X-2.947 Y2.822
N0096 M8020 (Atomized Fluxer OFF #1)
N0097 ()
N0098 G01 F999.000 (Speed Set to Rapid)
N0099 Z-1.500
N0100 X-3.541 Y2.656
N0101 Z-1.000
N0102 M8021 (Atomized Fluxer ON #1)
N0103 G04 P0.200 (DWELL)
N0104 G01 F75.000
N0105 X-3.545 Y2.912
N0106 M8020 (Atomized Fluxer OFF #1)
N0107 ()
N0108 G01 F999.000 (Speed Set to Rapid)
N0109 Z-1.500
N0110 X-3.846 Y2.867
N0111 Z-1.000
N0112 M8021 (Atomized Fluxer ON #1)
N0113 G04 P0.200 (DWELL)
N0114 G01 F75.000
N0115 X-4.054 Y2.871
N0116 M8020 (Atomized Fluxer OFF #1)
N0117 ()
N0118 G01 F999.000 (Speed Set to Rapid)
N0119 Z-1.500
N0120 X-4.855 Y2.814
N0121 Z-1.000
N0122 M8021 (Atomized Fluxer ON #1)
N0123 G04 P0.200 (DWELL)
N0124 G01 F75.000
N0125 X-4.851 Y1.256
N0126 M8020 (Atomized Fluxer OFF #1)
N0127 ()
N0128 G01 F999.000 (Speed Set to Rapid)
N0129 Z-1.500
N0130 X-4.599 Y0.450
N0131 Z-1.000
N0132 M8021 (Atomized Fluxer ON #1)
N0133 G04 P0.200 (DWELL)
N0134 G01 F75.000
N0135 X-4.416 Y0.601
N0136 X-4.294 Y0.609
N0137 X-4.119 Y0.462
N0138 M8020 (Atomized Fluxer OFF #1)
N0139 ()
N0140 G01 F999.000 (Speed Set to Rapid)
N0141 Z-1.500
N0142 X-5.533 Y0.529
N0143 Z-1.000
N0144 M8021 (Atomized Fluxer ON #1)
N0145 G04 P0.200 (DWELL)
N0146 G01 F75.000
N0147 X-5.349 Y0.670
N0148 X-5.542 Y0.789
N0149 M8020 (Atomized Fluxer OFF #1)
N0150 ()
N0151 G01 F999.000 (Speed Set to Rapid)
N0152 Z-1.500
N0153 X-5.303 Y1.610
N0154 Z-1.000
N0155 M8021 (Atomized Fluxer ON #1)
N0156 G04 P0.200 (DWELL)
N0157 G01 F75.000
N0158 X-5.307 Y2.819
N0159 M8020 (Atomized Fluxer OFF #1)
N0160 ()
N0161 G01 F999.000 (Speed Set to Rapid)
N0162 Z-1.500
N0163 X-5.889 Y2.652
N0164 Z-1.000
N0165 M8021 (Atomized Fluxer ON #1)
N0166 G04 P0.200 (DWELL)
N0167 G01 F75.000
N0168 Y2.904
N0169 M8020 (Atomized Fluxer OFF #1)
N0170 ()
N0171 G01 F999.000 (Speed Set to Rapid)
N0172 Z-1.500
N0173 X-6.198 Y2.872
N0174 Z-1.000
N0175 M8021 (Atomized Fluxer ON #1)
N0176 G04 P0.200 (DWELL)
N0177 G01 F75.000
N0178 X-6.410
N0179 M8020 (Atomized Fluxer OFF #1)
N0180 ()
N0181 G01 F999.000 (Speed Set to Rapid)
N0182 Z-1.500
N0183 X-7.207 Y2.819
N0184 Z-1.000
N0185 M8021 (Atomized Fluxer ON #1)
N0186 G04 P0.200 (DWELL)
N0187 G01 F75.000
N0188 Y1.260
N0189 M8020 (Atomized Fluxer OFF #1)
N0190 ()
N0191 G01 F999.000 (Speed Set to Rapid)
N0192 Z-1.500
N0193 X-6.947 Y0.467
N0194 Z-1.000
N0195 M8021 (Atomized Fluxer ON #1)
N0196 G04 P0.200 (DWELL)
N0197 G01 F75.000
N0198 X-6.739 Y0.618
N0199 X-6.646
N0200 X-6.467 Y0.459
N0201 M8020 (Atomized Fluxer OFF #1)
N0202 ()
N0203 G01 F999.000 (Speed Set to Rapid)
N0204 Z-1.500
N0205 X-7.884 Y0.536
N0206 Z-1.000
N0207 M8021 (Atomized Fluxer ON #1)
N0208 G04 P0.200 (DWELL)
N0209 G01 F75.000
N0210 X-7.694 Y0.664
N0211 X-7.887 Y0.783
N0212 M8020 (Atomized Fluxer OFF #1)
N0213 ()
N0214 G01 F999.000 (Speed Set to Rapid)
N0215 Z-1.500
N0216 X-7.656 Y1.610
N0217 Z-1.000
N0218 M8021 (Atomized Fluxer ON #1)
N0219 G04 P0.200 (DWELL)
N0220 G01 F75.000
N0221 X-7.659 Y2.815
N0222 M8020 (Atomized Fluxer OFF #1)
N0223 ()
N0224 G01 F999.000 (Speed Set to Rapid)
N0225 Z-1.500
N0226 X-8.248 Y2.652
N0227 Z-1.000
N0228 M8021 (Atomized Fluxer ON #1)
N0229 G04 P0.200 (DWELL)
N0230 G01 F75.000
N0231 X-8.245 Y2.918
N0232 M8020 (Atomized Fluxer OFF #1)
N0233 ()
N0234 G01 F999.000 (Speed Set to Rapid)
N0235 Z-1.500
N0236 X-8.549 Y2.869
N0237 Z-1.000
N0238 M8021 (Atomized Fluxer ON #1)
N0239 G04 P0.200 (DWELL)
N0240 G01 F75.000
N0241 X-8.755 Y2.872
N0242 M8020 (Atomized Fluxer OFF #1)
N0243 ()
N0244 G01 F999.000 (Speed Set to Rapid)
N0245 Z-1.500
N0246 X-9.563 Y2.823
N0247 Z-1.000
N0248 M8021 (Atomized Fluxer ON #1)
N0249 G04 P0.200 (DWELL)
N0250 G01 F75.000
N0251 X-9.561 Y1.250
N0252 M8020 (Atomized Fluxer OFF #1)
N0253 ()
N0254 G01 F999.000 (Speed Set to Rapid)
N0255 Z-1.500
N0256 X-9.303 Y0.457
N0257 Z-1.000
N0258 M8021 (Atomized Fluxer ON #1)
N0259 G04 P0.200 (DWELL)
N0260 G01 F75.000
N0261 X-9.110 Y0.604
N0262 X-9.005 Y0.609
N0263 X-8.817 Y0.460
N0264 M8020 (Atomized Fluxer OFF #1)
N0265 M8010 (Flux Head DOWN)
O1001 (BEGIN SOLDER PROGRAM)
N0267 G64 (INIT)
N0268 M23 (Set Active Tool - Solder Nozzle)
N0269 ()
N0270 G01 F999.900
N0271 Z-0.500
N0272 X-0.832 Y0.532
N0273  Z-0.150
N0274 G04 P0.800 (DWELL)
N0275 G01 F10.000
N0276 X-0.643 Y0.665 
N0277 X-0.838 Y0.787 
N0278 X-0.840 Y1.067 
N0279 Z-0.500
N0280 ()
N0281 G01 F999.900
N0282 X-0.607 Y1.611
N0283  Z-0.150
N0284 G04 P0.800 (DWELL)
N0285 G01 F10.000
N0286 X-0.605 Y2.114 
N0287 X-0.511 Y2.176 
N0288 X-0.505 Y3.080 
N0289 Z-0.500
N0290 ()
N0291 G01 F999.900
N0292 X-1.193 Y2.648
N0293  Z-0.150
N0294 G04 P0.800 (DWELL)
N0295 G01 F10.000
N0296 X-1.188 Y3.070 
N0297 Z-0.500
N0298 ()
N0299 G01 F999.900
N0300 X-1.493 Y2.871
N0301  Z-0.150
N0302 G04 P0.800 (DWELL)
N0303 G01 F10.000
N0304 X-1.942 Y2.873 
N0305 Z-0.500
N0306 ()
N0307 G01 F999.900
N0308 X-2.592 Y2.807
N0309  Z-0.150
N0310 G04 P0.800 (DWELL)
N0311 G01 F10.000
N0312 X-2.603 Y1.242 
N0313 X-2.699 Y0.836 
N0314 Z-0.500
N0315 ()
N0316 G01 F999.900
N0317 X-2.246 Y0.459
N0318  Z-0.150
N0319 G04 P0.800 (DWELL)
N0320 G01 F10.000
N0321 X-2.034 Y0.639 
N0322 X-1.939 Y0.641 
N0323 X-1.742 Y0.450 
N0324 X-1.741 Y0.267 
N0325 Z-0.500
N0326 ()
N0327 G01 F999.900
N0328 X-3.181 Y0.535
N0329  Z-0.150
N0330 G04 P0.800 (DWELL)
N0331 G01 F10.000
N0332 X-2.987 Y0.666 
N0333 X-3.205 Y0.779 
N0334 X-3.209 Y1.069 
N0335 Z-0.500
N0336 ()
N0337 G01 F999.900
N0338 X-2.951 Y1.611
N0339  Z-0.150
N0340 G04 P0.800 (DWELL)
N0341 G01 F10.000
N0342 Y2.115 
N0343 X-2.867 Y2.216 
N0344 X-2.864 Y3.087 
N0345 Z-0.500
N0346 ()
N0347 G01 F999.900
N0348 X-3.545 Y2.656
N0349  Z-0.150
N0350 G04 P0.800 (DWELL)
N0351 G01 F10.000
N0352 X-3.543 Y3.075 
N0353 Z-0.500
N0354 ()
N0355 G01 F999.900
N0356 X-3.850 Y2.869
N0357  Z-0.150
N0358 G04 P0.800 (DWELL)
N0359 G01 F10.000
N0360 X-4.283 Y2.870 
N0361 Z-0.500
N0362 ()
N0363 G01 F999.900
N0364 X-4.950 Y2.809
N0365  Z-0.150
N0366 G04 P0.800 (DWELL)
N0367 G01 F10.000
N0368 X-4.955 Y1.240 
N0369 X-5.059 Y0.863 
N0370 Z-0.500
N0371 ()
N0372 G01 F999.900
N0373 X-4.601 Y0.452
N0374  Z-0.150
N0375 G04 P0.800 (DWELL)
N0376 G01 F10.000
N0377 X-4.415 Y0.637 
N0378 X-4.309 Y0.634 
N0379 X-4.120 Y0.466 
N0380 Y0.270 
N0381 Z-0.500
N0382 ()
N0383 G01 F999.900
N0384 X-5.532 Y0.534
N0385  Z-0.150
N0386 G04 P0.800 (DWELL)
N0387 G01 F10.000
N0388 X-5.343 Y0.668 
N0389 X-5.551 Y0.784 
N0390 X-5.545 Y1.063 
N0391 Z-0.500
N0392 ()
N0393 G01 F999.900
N0394 X-5.305 Y1.613
N0395  Z-0.150
N0396 G04 P0.800 (DWELL)
N0397 G01 F10.000
N0398 X-5.307 Y2.115 
N0399 X-5.229 Y2.176 
N0400 X-5.220 Y3.051 
N0401 Z-0.500
N0402 ()
N0403 G01 F999.900
N0404 X-5.901 Y2.652
N0405  Z-0.150
N0406 G04 P0.800 (DWELL)
N0407 G01 F10.000
N0408 X-5.900 Y3.081 
N0409 Z-0.500
N0410 ()
N0411 G01 F999.900
N0412 X-6.205 Y2.870
N0413  Z-0.150
N0414 G04 P0.800 (DWELL)
N0415 G01 F10.000
N0416 X-6.636 Y2.872 
N0417 Z-0.500
N0418 ()
N0419 G01 F999.900
N0420 X-7.281 Y2.815
N0421  Z-0.150
N0422 G04 P0.800 (DWELL)
N0423 G01 F10.000
N0424 Y1.244 
N0425 X-7.425 Y0.904 
N0426 Z-0.500
N0427 ()
N0428 G01 F999.900
N0429 X-6.951 Y0.457
N0430  Z-0.150
N0431 G04 P0.800 (DWELL)
N0432 G01 F10.000
N0433 X-6.762 Y0.645 
N0434 X-6.661 
N0435 X-6.469 Y0.466 
N0436 X-6.470 Y0.274 
N0437 Z-0.500
N0438 ()
N0439 G01 F999.900
N0440 X-7.888 Y0.536
N0441  Z-0.150
N0442 G04 P0.800 (DWELL)
N0443 G01 F10.000
N0444 X-7.694 Y0.666 
N0445 X-7.899 Y0.786 
N0446 X-7.896 Y1.075 
N0447 Z-0.500
N0448 ()
N0449 G01 F999.900
N0450 X-7.660 Y1.611
N0451  Z-0.150
N0452 G04 P0.800 (DWELL)
N0453 G01 F10.000
N0454 X-7.657 Y2.116 
N0455 X-7.567 Y2.171 
N0456 X-7.571 Y3.078 
N0457 Z-0.500
N0458 ()
N0459 G01 F999.900
N0460 X-8.246 Y2.654
N0461  Z-0.150
N0462 G04 P0.800 (DWELL)
N0463 G01 F10.000
N0464 X-8.248 Y3.075 
N0465 Z-0.500
N0466 ()
N0467 G01 F999.900
N0468 X-8.557 Y2.866
N0469  Z-0.150
N0470 G04 P0.800 (DWELL)
N0471 G01 F10.000
N0472 X-8.979 Y2.865 
N0473 Z-0.500
N0474 ()
N0475 G01 F999.900
N0476 X-9.637 Y2.819
N0477  Z-0.150
N0478 G04 P0.800 (DWELL)
N0479 G01 F10.000
N0480 X-9.640 Y1.250 
N0481 X-9.776 Y0.844 
N0482 Z-0.500
N0483 ()
N0484 G01 F999.900
N0485 X-9.300 Y0.457
N0486  Z-0.150
N0487 G04 P0.800 (DWELL)
N0488 G01 F10.000
N0489 X-9.118 Y0.651 
N0490 X-9.008 Y0.652 
N0491 X-8.814 Y0.463 
N0492 X-8.813 Y0.276 
N0493 Z-0.500
N0494 M30 (End of File)

